X:1
T:Title
%%score ( 1 2 ) ( 3 4 )
L:1/8
M:3/4
K:G
V:1 treble nm="Choir Aahs, Staff"
V:2 treble 
V:3 bass nm="Choir Aahs, Staff-1"
V:4 bass 
V:1
 z2 B2 z2 | [DG]2 [Gc]4 | [GB]2 [EA]2 E2 | [DF]2 [DG]4 | [DB]2 [Dd]4 | [DF]2 [DE]2 [^CA]2 | %6
 [A,^C]2 [A,D]4- | [A,D]6 | D2 [DB]2 [CA]2 | z2 c4 | [GB]2 E-[E-^G] [EA][ce] | %11
 [Bd][Ac] [GB]2 [FA]2 | [Fd]2 d2 B2 | [Gc]2 [GB]2 [DG]2 | [FA]2 G4- | G6 |] %16
V:2
 D2 D2- [DA]2 | x6 | x6 | x6 | x6 | x6 | x6 | x6 | x6 | [B,G]2 G2 A2 | z2 .A2 z2 | x6 | z2 G4 | %13
 x6 | x6 | x6 |] %16
V:3
 [G,B,]2 B,2 C2 | [G,B,]2 [G,E]4 | [G,D]2 [C,C]4 | [C,C]2 [G,,B,]4 | [G,B,]2 [F,A,]4 | %5
 [D,A,]2 [A,,A,]4 | [A,,G,]2 [D,F,]4- | [D,F,]6 | [D,F,]2 G,2 [D,F,]2 | [E,G,]2 [E,G,]2 [F,D]2 | %10
 [G,D]2 C3 A, | [B,D][CE] D4 | [D,C]2 B,2 D2 | [C,E]2 D2 B,2 | [D,C]2 [G,,B,]4- | [G,,B,]6 |] %16
V:4
 z2 G,4 | x6 | x6 | x6 | x6 | x6 | x6 | x6 | x6 | x6 | x6 | x6 | z2 G,4 | z2 D,4 | x6 | x6 |] %16

